packages/core/src/svgs/silk.svg

<svg width="24" height="24" viewBox="0 0 24 24" fill="none" xmlns="http://www.w3.org/2000/svg">
<g clip-path="url(#clip0_31_18807)">
<path d="M0 0H24V24H0V0Z" fill="#3399CC"/>
<path d="M12 18.8574C15.7871 18.8574 18.8571 15.7873 18.8571 12.0002C18.8571 8.21311 15.7871 5.14307 12 5.14307C8.21287 5.14307 5.14282 8.21311 5.14282 12.0002C5.14282 15.7873 8.21287 18.8574 12 18.8574Z" fill="white"/>
<path d="M12 18.4284C15.5504 18.4284 18.4286 15.5503 18.4286 11.9999C18.4286 8.44946 15.5504 5.57129 12 5.57129C8.44958 5.57129 5.57141 8.44946 5.57141 11.9999C5.57141 15.5503 8.44958 18.4284 12 18.4284Z" fill="#3399CC"/>
<path d="M17.5714 12.8479C17.4367 13.7177 17.0955 14.5426 16.5763 15.2534C16.4453 15.1853 16.2997 15.1498 16.152 15.1502C15.6489 15.1502 15.2404 15.5534 15.2404 16.051C15.2404 16.207 15.2803 16.3532 15.3506 16.4809C14.3788 17.1919 13.2054 17.574 12.0013 17.5716C10.7396 17.5716 9.57559 17.1619 8.63616 16.4697C8.70259 16.3446 8.7403 16.2023 8.7403 16.051C8.7403 15.5539 8.33187 15.1502 7.82873 15.1502C7.68173 15.1502 7.54287 15.1844 7.4203 15.2453C6.90132 14.5322 6.56121 13.7048 6.42859 12.8329C6.59439 12.7656 6.7364 12.6504 6.83654 12.5021C6.93667 12.3538 6.9904 12.1791 6.99087 12.0002C6.99087 11.6247 6.75859 11.3029 6.42859 11.1674C6.56562 10.2661 6.92419 9.41291 7.47216 8.68429C7.57845 8.72715 7.69502 8.75072 7.81673 8.75072C8.3203 8.75072 8.7283 8.34744 8.7283 7.84986C8.7283 7.72986 8.70473 7.61587 8.6623 7.51172C9.63206 6.80563 10.8013 6.42634 12.0009 6.42872C13.2394 6.42872 14.3846 6.82386 15.3146 7.49329C15.2656 7.60563 15.2404 7.72688 15.2404 7.84944C15.2404 8.34744 15.6489 8.75072 16.152 8.75072C16.284 8.75072 16.4092 8.72329 16.5219 8.67358C17.0714 9.4005 17.432 10.2524 17.5714 11.1529C17.3962 11.215 17.2444 11.3297 17.1368 11.4814C17.0293 11.633 16.9712 11.8142 16.9706 12.0002C16.9706 12.3902 17.2209 12.7219 17.5714 12.8479Z" fill="white"/>
<path d="M13.7126 9.94193C13.7478 10.5882 13.2686 11.3476 13.0243 11.6459L12.3553 10.9632C12.4805 10.8694 12.7312 10.5342 12.7312 9.94193C12.7312 9.3505 12.2298 8.8135 11.9791 8.61936C11.7279 8.82764 11.2265 9.38393 11.2265 9.94236C11.2265 10.5004 11.4913 10.8552 11.6238 10.9632L12.5435 11.8491C12.9331 12.1234 13.7126 12.9428 13.7126 14.0262C13.7126 15.1096 12.5701 16.2698 11.9996 16.7142C11.1532 15.9745 10.2858 15.1414 10.2858 14.0262C10.2858 13.1348 10.7315 12.5224 10.9543 12.3282L11.6238 13.0054C11.2638 13.3971 11.2089 13.8492 11.2265 14.0262C11.2513 14.7432 11.7523 15.2001 11.9996 15.3389C12.3133 15.0681 12.6999 14.5679 12.7312 14.0262C12.7569 13.5929 12.4912 13.1999 12.3553 13.0576L10.9548 11.6459C10.7246 11.4008 10.2858 10.9632 10.2858 9.94193C10.2858 8.74407 11.3868 7.73693 11.9786 7.28564C13.1808 8.23364 13.6681 9.1345 13.7126 9.94193Z" fill="#3399CC"/>
</g>
<defs>
<clipPath id="clip0_31_18807">
<rect width="24" height="24" fill="white"/>
</clipPath>
</defs>
</svg>

<svg xmlns="http://www.w3.org/2000/svg" width="24" height="24" fill="none" viewBox="0 0 24 24"><g clip-path="url(#a)"><path fill="#39C" d="M0 0h24v24H0z"/><path fill="#fff" d="M12 18.857a6.857 6.857 0 1 0 0-13.714 6.857 6.857 0 0 0 0 13.714"/><path fill="#39C" d="M12 18.428a6.429 6.429 0 1 0 0-12.857 6.429 6.429 0 0 0 0 12.857"/><path fill="#fff" d="M17.571 12.848a5.5 5.5 0 0 1-.995 2.405.9.9 0 0 0-.424-.103.906.906 0 0 0-.912.901c0 .156.04.302.11.43a5.65 5.65 0 0 1-3.349 1.09 5.65 5.65 0 0 1-3.365-1.101.9.9 0 0 0 .104-.419c0-.497-.408-.9-.911-.9a.9.9 0 0 0-.409.094 5.5 5.5 0 0 1-.991-2.412A.9.9 0 0 0 6.99 12a.9.9 0 0 0-.562-.833 5.5 5.5 0 0 1 1.043-2.483.9.9 0 0 0 .345.067.906.906 0 0 0 .845-1.24 5.65 5.65 0 0 1 3.339-1.082c1.238 0 2.384.395 3.314 1.064a.9.9 0 0 0-.075.356c0 .498.409.902.912.902a.9.9 0 0 0 .37-.077 5.5 5.5 0 0 1 1.05 2.479.9.9 0 0 0-.601.847c0 .39.25.722.6.848"/><path fill="#39C" d="M13.713 9.942c.035.646-.444 1.406-.689 1.704l-.669-.683c.125-.094.376-.429.376-1.021s-.501-1.129-.752-1.323c-.251.209-.752.765-.752 1.323s.264.913.397 1.021l.92.886c.39.274 1.169 1.094 1.169 2.177 0 1.084-1.143 2.244-1.713 2.688-.847-.74-1.714-1.573-1.714-2.688 0-.891.446-1.504.668-1.698l.67.677c-.36.392-.415.844-.398 1.021.025.717.526 1.174.774 1.313.313-.27.7-.771.731-1.313.026-.433-.24-.826-.376-.968l-1.4-1.412c-.23-.245-.67-.683-.67-1.704 0-1.198 1.102-2.205 1.694-2.656 1.202.948 1.69 1.848 1.734 2.656"/></g><defs><clipPath id="a"><path fill="#fff" d="M0 0h24v24H0z"/></clipPath></defs></svg>
